src/assets/skills/chart-js.svg

<svg height="100pt" viewBox="0 0 100 100" width="100pt" xmlns="http://www.w3.org/2000/svg"><path d="m0 0h100v100h-100z" fill="#fff"/><path d="m86.715 50.313c-12.582.247-9.961 8.212-18.829 10.226-9.008 2.046-10.43-22-19.435-22-9.007 0-11.002 23.358-22.28 39.394l-.321.454 24.179 13.957 36.686-21.178z" fill="#36a2eb"/><path d="m86.715 49.588c-4.212-5.406-7.069-11.62-13.215-11.62-10.878 0-8.016 17.744-20.037 17.744-12.022 0-13.286-19.087-26.905-1.145-4.34 5.717-7.833 12.091-10.577 18.123l34.048 19.655 36.686-21.179z" fill="#ffce56"/><path d="m13.341 56.938c4.128-11.431 5.909-20.688 13.789-20.688 12.022 0 14.883 33.772 25.189 30.336 10.303-3.434 9.158-21.751 25.188-21.751 3.051 0 6.166 1.869 9.208 4.892v21.439l-36.686 21.178-36.687-21.178v-14.228z" fill="#fe6184" opacity=".8"/><path d="m0 100v-100h100v100zm15.603-30.143 34.397 19.857 34.397-19.857v-39.713l-34.397-19.857-34.397 19.857z" fill="#e7e9ed"/></svg>

<?xml version="1.0" encoding="UTF-8" standalone="no"?><!-- Generator: Gravit.io --><svg xmlns="http://www.w3.org/2000/svg" xmlns:xlink="http://www.w3.org/1999/xlink" style="isolation:isolate" viewBox="0 0 100 100" width="100pt" height="100pt"><rect x="0" y="0" width="100" height="100" transform="matrix(1,0,0,1,0,0)" fill="rgb(255,255,255)"/><g><path d=" M 86.715 50.313 C 74.133 50.56 76.754 58.525 67.886 60.539 C 58.878 62.585 57.456 38.539 48.451 38.539 C 39.444 38.539 37.449 61.897 26.171 77.933 L 25.85 78.387 L 50.029 92.344 L 86.715 71.166 L 86.715 50.313 Z " fill="rgb(54,162,235)"/><path d=" M 86.715 49.588 C 82.503 44.182 79.646 37.968 73.5 37.968 C 62.622 37.968 65.484 55.712 53.463 55.712 C 41.441 55.712 40.177 36.625 26.558 54.567 C 22.218 60.284 18.725 66.658 15.981 72.69 L 50.029 92.345 L 86.715 71.166 L 86.715 49.588 Z " fill="rgb(255,206,86)"/><g opacity="0.8"><path d=" M 13.341 56.938 C 17.469 45.507 19.25 36.25 27.13 36.25 C 39.152 36.25 42.013 70.022 52.319 66.586 C 62.622 63.152 61.477 44.835 77.507 44.835 C 80.558 44.835 83.673 46.704 86.715 49.727 L 86.715 71.166 L 50.029 92.344 L 13.342 71.166 L 13.342 56.938 L 13.341 56.938 Z " fill="rgb(254,97,132)"/></g><path d=" M 0 100 L 0 0 L 100 0 L 100 100 L 0 100 Z  M 15.603 69.857 L 50 89.714 L 84.397 69.857 L 84.397 30.144 L 50 10.287 L 15.603 30.144 L 15.603 69.857 Z " fill="rgb(231,233,237)"/></g></svg>
